X: 557
T: Leith Races
%R: jig
B: "Twenty Four Country Dances for the Year 1805", Tho. Preston, ed. p.239 #1
F: http://folkopedia.efdss.org/images/archive/0/02/20121211105513%21Preston_24_1805.PDF
Z: 2014 John Chambers <jc:trillian.mit.edu>
M: 6/8
L: 1/8
K: C
|:\
c2G GEG | c2G GEG | c2e d2f | edc BAG |\
c2G GEG | c2G GEG | c2e d2f | efd c3 :|
|:\
e2e ede | f2f fgf | e2e ece | d2d dcd |\
e2e ece | f2f fgf | ece dcd | [c3E3] [c3E3] :|
%%begintext align
%% 1st and 2d Cu. foot it and turn your part.s
%% then hands across with the 2d Cu. right
%% and left.
%%endtext

%%sep 1 1 500
%%sep 1 1 500
